!!!COM: Scriabin, Alexander
!!!OTL: Etude
!!!OPR: 12 Etudes
!!!OPS: 8
!!!ONM: 3
!!!ODT: 1894
!!!AGN: Etude
**kern	**kern	**dynam
*staff2	*staff1	*staff1/2
*clefF4	*clefG2	*clefG2
*k[f#c#]	*k[f#c#]	*k[f#c#]
*M2/4	*M2/4	*M2/4
*MM184	*MM184	*MM184
=1-	=1-	=1-
12BB\ 12B\L	(12f#/L	p
12F#\	12d/ 12dd/	.
12AA#\ 12A#\J	12f#/J	.
12F#/L	12d/ 12dd/L	.
12FF#/ 12F#/	12d/	.
12D/J	12A#/ 12a#/J	.
=2	=2	=2
12D\ 12d\L	12b/L	.
12B\	12f#/ 12ff#/	.
12C#\ 12c#\J	12b/J	.
12B\L	12e#/ 12ee#/L	.
12G\ 12g\	12b/	.
12c#\J	12en/ 12een/J	.
=3	=3	=3
12F#\ 12f#\L	12b/L	.
12B\	12d/ 12dd/	.
12E\ 12e\J	12g/J	.
12B\L	12c#/ 12cc#/L	.
12D\ 12d\	12e/	.
12G\J	12B/ 12b/J	.
=4	=4	=4
12C#\ 12c#\L	12e/L	.
12G\	12A/ 12a/	.
12BB\ 12B\J	12d/J	.
12E\L	12G/ 12g/L	.
12AA#\ 12A#\	12c#/	.
&(12E\J&)	12F#/ 12f#/J)	.
=5	=5	=5
12BB\ 12B\L	(12f#/L	.
12F#\	12d/ 12dd/	.
12AA#\ 12A#\J	12f#/J	.
12F#/L	12d/ 12dd/L	.
12FF#/ 12F#/	12d/	.
12D/J	12A#/ 12a#/J	.
=6	=6	=6
12D\ 12d\L	12an/L	.
12A\	12f#/ 12ff#/	.
12C#\ 12c#\J	12a/J	.
12A\L	12e#/ 12ee#/L	.
12D\ 12d\	12a/	.
12A\J	12f#/ 12ff#/J	.
=7	=7	=7
12D\ 12d\L	12b#\L	.
12G#\	12f#\ 12ff#\	.
12C#\ 12c#\J	12cc#\J	.
12F#\L	12a\ 12aa\L	.
12BB#\ 12B#\	12dd#\	.
12F#\J	12a\ 12aa\J	.
=8	=8	=8
12C#\ 12c#\L	12cc#/L	.
12B\	12e#/ 12ee#/	.
12C#\ 12c#\J	12cc#/J	.
12A\L	12f#/ 12ff#/L	.
12FF#\ 12A\	12cc#/	.
&(12C#\J&)	12f#/ 12ff#/J)	.
=9	=9	=9
12D\ 12d\L	(12a/L	p
12A\	12f#/ 12ff#/	.
12C#\ 12c#\J	12a/J	.
12A\L	12e#/ 12ee#/L	.
12Cn\ 12cn\	12a/	.
12A\J	12en/ 12een/J	.
=10	=10	=10
12BB\ 12B\L	12a/L	.
12A\	12d#/ 12dd#/	.
12Dn\ 12dn\J	12f#/J	.
12A\L	12cn/ 12ccn/L	.
12D#\ 12d#\	12f#/	.
&(12A\J&)	12B/ 12b/J)	.
=11	=11	=11
12E\ 12e\L	(12b\L	.
12B\	12g#\ 12gg#\	.
12D#\ 12d#\J	12b\J	.
12B\L	12f##\ 12ff##\L	.
12Dn\ 12dn\	12b\	.
12B\J	12f#\ 12ff#\J	.
=12	=12	=12
12C#\ 12c#\L	12b/L	.
12B\	12e#/ 12ee#/	.
12En\ 12en\J	12g#/J	.
12B\L	12d/ 12dd/L	.
12E#\ 12e#\	12g#/	.
&(12B\J&)	12c#/ 12cc#/J)	.
=13	=13	=13
12F#\ (12f#\L	(12cc#\L	.
12c#\	12a#\ 12aa#\	.
12F#\ 12g\J	12dd\J	.
12d\L	12b\ 12bb\L	.
12F#\ 12g#\	12b\	.
12d\J)	12e#\ 12ee#\J)	.
=14	=14	=14
12F#\ (12f#\L	(12cc#\L	.
12c#\	12a#\ 12aa#\	.
12F#\ 12g\J	12dd\J	.
12d\L	12b\ 12bb\L	.
12F#\ 12g#\	12b\	.
12d\J)	12e#\ 12ee#\J)	.
=15	=15	=15
12F#\ 12g#\L	(12dd#\L	.
12d#\	12b#\ 12bb#\	.
12F#\ 12g#\J	12dd#\J	.
12d#\L	12b#\ 12bb#\L	.
12F#\ 12g#\	12dd#\	.
12d#\J	12b#\ 12bb#\J	.
=16	=16	=16
12F#\ 12a\L	12ee\L	.
12e\J	12cc#\ 12ccc#\	.
12F#\ 12a#\L	12cc#\J	.
12e\J	12f#\ 12ff#\L	.
12F#\ 12a#\L	12cc#\	.
&(12e\J&)	12f#\ 12ff#\J)	.
=17	=17	=17
8BB'/ 8F#'/ 8B'/L	(12f#/L	f
.	12d/ 12dd/	.
8FF#'/ 8F#'/J	.	.
.	12f#/J	.
8AA#'/ 8F#'/ 8A#'/L	12d/ 12dd/L	.
.	12d/	.
8FF#'/ 8F#'/J	.	.
.	12A#/ 12a#/J	.
=18	=18	=18
8D'\ 8B'\ 8d'\L	12b/L	.
.	12f#/ 12ff#/	.
8GG'\ 8G'\J	.	.
.	12b/J	.
4C#^\ 4c#^\	12e#/ 12ee#/L	.
.	12b/	.
.	12en/ 12een/J	.
=19	=19	=19
8F#'\ 8B'\ 8f#'\L	12b/L	.
.	12d/ 12dd/	.
8EE'\ 8E'\J	.	.
.	12g/J	.
8E'\ 8B'\ 8e'\L	12c#/ 12cc#/L	.
.	12e/	.
8DD'\ 8D'\J	.	.
.	12B/ 12b/J	.
=20	=20	=20
8C#'/ 8G'/ 8c#'/L	12e/L	.
.	12A/ 12a/	.
8CC#/ [8C#/J	.	.
.	12A#/J	.
4FF#^/ 4C#^/]	12G/ 12g/L	.
.	12A#/	.
.	12F#/) 12f#/J	.
=21	=21	=21
8E'\ 8B'\ 8e'\L	(12b\L	.
.	12g\ 12gg\	.
8BB'\ 8B'\J	.	.
.	12b\J	.
8E-'\ 8B'\ 8e-'\L	12g\ 12gg\L	.
.	12g\	.
8BB'\ 8B'\J	.	.
.	12e-\ 12ee-\J)	.
=22	=22	=22
8G'\ 8d'\ 8g'\L	12dd\L	.
.	12b\ 12bb\	.
8D'\ 8G'\ 8d'\J	.	.
.	12b\J	.
8G'\ 8d'\ 8g'\L	12e#/ 12ee#/L	.
.	12e#/	.
8GG'\ 8G'\J	.	.
.	12B/ 12b/J	.
=23	=23	=23
8BB'/ 8F#'/ 8B'/L	(12f#/L	.
.	(12d/) 12dd/	.
8FF#'/ 8F#'/J	.	.
.	12g/J	.
8BB'/ 8F#'/ 8B'/L	12d/) 12dd/L	.
.	(12g#/	.
8EE#'/ 8E#'/J	.	.
.	12d/) 12dd/J	.
=24	=24	=24
8BB'/ 8F#'/ 8B'/L	(12f#/L	.
.	12d/) 12dd/	.
8FF#'/ 8F#'/J	.	.
.	(12g/J	.
8BB'/ 8F#'/ 8B'/L	12d/) 12dd/L	.
.	(12g#/	.
8EE#'/ 8E#'/J	.	.
.	12d/) 12dd/J	.
=25	=25	=25
8BB'/ 8F#'/ 8B'/L	(12f#/L	.
.	12d/) 12dd/	.
8FF#'/ 8F#'/J	.	.
.	12b^/J	.
8D'\ 8B'\ 8d'\L	12f#\ 12ff#\L	.
.	(12dd^\	.
8F#'\ 8d'\ 8f#'\J	.	.
.	12b\ 12bb\J)	.
*clefG2	*	*
=26	=26	=26
8B'/ 8f#'/ 8b'/L	12ff#^\L	.
.	12dd\ 12ddd\	.
8F#'/ 8f#'/J	.	.
.	(12bb^\J	.
8d'/ 8b'/ 8dd'/L	12ff#\ 12fff#\L)	.
.	(12ddd^\	.
8f#'/ 8dd'/ 8ff#'/J	.	.
.	12bb\ 12bbb\J)	.
=27	=27	=27
6b\ 6ff#\ 6bb\	6ddd\ 6dddd\	.
12r	12r	.
4r	4r	.
=28	=28	=28
*clefF4	*	*
6FFF#/ 6FF#/	6A#/ 6e/ 6f#/ 6cc#/	.
12r	12r	.
4r	4r	.
=29	=29	=29
8BBBB/ 8BBB/L	(12d/L	f
.	12B/ 12b/	.
8FF#/J	.	.
.	12d/J	.
8F#/L	12A#/ 12a#/L	.
.	12d/	.
8FF#/J	.	.
.	12An/ 12an/J	.
=30	=30	=30
8BBBB/ 8BBB/L	12B/L	.
.	12G/ 12g/	.
8GG/J	.	.
.	12B/J	.
8G/L	12F#/ 12f#/L	.
.	12B/	.
8GG/J	.	.
.	12E/ 12e/J	.
*	*clefF4	*clefF4
=31	=31	=31
8BBBB/ 8BBB/L	12G\L	.
.	12D\ 12d\	.
8EE/J	.	.
.	12G\J	.
8E/L	12C#\ 12c#\L	.
.	12G\	.
8EE/J	.	.
.	12BB\ 12B\J	.
=32	=32	=32
8BBBB/ 8BBB/L	12G\L	.
.	12D\ 12d\	.
8EE#/J	.	.
.	12G\J	.
8E#/L	12C#\ 12c#\L	.
.	12G\	.
8EE#/J	.	.
.	12BB\ 12B\J)	.
*	*clefG2	*clefG2
=33	=33	=33
8BBBB/ 8BBB/L	(12d/L	.
.	12B/ 12b/	.
8FF#/J	.	.
.	12d/J	.
8F#/L	12A#/ 12a#/L	.
.	12d/	.
8FF#/J	.	.
.	12An/ 12an/J)	.
=34	=34	=34
8BBBB/ 8BBB/L	12B/L	.
.	12G/ 12g/	.
8GG/J	.	.
.	12B/J	.
8G/L	12F#/ 12f#/L	.
.	12B/	.
8GG/J	.	.
.	12E/ 12e/J	.
*	*clefF4	*clefF4
=35	=35	=35
8BBBB/ 8BBB/L	12G\L	.
.	12D\ 12d\	.
8EE/J	.	.
.	12G\J	.
8E/L	12C#\ 12c#\L	.
.	12G\	.
8EE/J	.	.
.	12BB\ 12B\J	.
=36	=36	=36
8BBBB/ 8BBB/L	12G\L	.
.	12D\ 12d\	.
8EE#/J	.	.
.	12G\J	.
8E#/L	12C#\ 12c#\L	.
.	12G\	.
8EE#/J	.	.
.	12BB\ 12B\J	.
=37	=37	=37
8BBBB/ 8BBB/L	(12F#\L	.
.	12D\ 12d\	.
8FF#/J	.	.
.	12F#\J	.
4F#\	12C#\ 12c#\L	.
.	12F#\	.
.	12BB\ 12B\J	.
=38	=38	=38
12DD/ 12D/L	12F#\L	.
12FF#/	12D\ 12d\	.
12CC#/ 12C#/J	12F#\J	.
12FF#/L	12C#\ 12c#\L	.
12BBB/ 12BB/	12F#\	.
12FF#/J	12BB\ 12B\J	.
=39	=39	=39
12BBB-/ 12BB-/L	12D\L	.
12FF#/	12BB-\ 12B-\	.
12BBB-/ 12BB-/J	12D\J	.
12FF#/L	12BB-\ 12B-\L	.
12BBB-/ 12BB-/	12D\	.
12FF#/J	12BB-\ 12B-\J	.
=40	=40	=40
12AAA/ 12AA/L	12D\L	pp
12DD/	12AA\ 12A\	.
12AAA/ 12AA/J	12D\J	.
12DD/L	12AA\ 12A\L	.
12AAA/ 12AA/	12D\	.
12DD/J	12AA\ 12A\J)	.
*	*clefG2	*clefG2
=41	=41	=41
*	*^	*
12DD/ 12D/L	(4f#/	2A\ 2d\	mf
12AA/	.	.	.
12AAA/ 12AA/J	.	.	.
*	*v	*v	*
*	*^	*
12DD/L	8e/L	.	.
12DD/ 12D/	.	.	.
.	8f#/J	.	.
12AA/J	.	.	.
=42	=42	=42	=42
12FF#/ 12F#/L	6f#/	6A\ 6c#\	.
12C#/	.	.	.
12CC#/ 12C#/J	[12a/	[12F#\ [12c#\	.
12AA/L	12a/]	4F#\] 4c#\]	.
12AAA/ 12AA/	6f#/)	.	.
12FF#/J	.	.	.
=43	=43	=43	=43
12DD/ 12D/L	(4f#/	2A\ 2d\	.
12AA/	.	.	.
12AAA/ 12AA/J	.	.	.
12DD/L	8e/L	.	.
12DD/ 12D/	.	.	.
.	8f#/J	.	.
12AA/J	.	.	.
=44	=44	=44	=44
12FF#/ 12F#/L	6f#/	6B\ 6d\	.
12D/	.	.	.
12DD/ 12D/J	[12b/	[12F#\ [12d\	.
12BB/L	12b/]	12F#\] 12d\]	.
12BBB/ 12BB/	6f#/)	6B\ 6d\	.
12FF#/J	.	.	.
*	*v	*v	*
=45	=45	=45
12EE/ 12E/L	8B/ 8d/ (8g/L	.
12BB/	.	.
.	8B/ 8d/ 8a/J	.
12BBB/ 12BB/J	.	.
12EE/L	8B/ 8d/ 8f#/L	.
12EE/ 12E/	.	.
.	8B/ 8d/ 8g/J	.
12BB/J	.	.
=46	=46	=46
12BB\ 12B\L	4B/ 4g/ 4dd/	.
12E\	.	.
12EE\ 12E\J	.	.
12BB/L	12d/ 12g/ 12cc#/L	.
12BBB/ 12BB/	12d/ 12g/ 12b/	.
12EE/J	12B/ 12d/ 12a/J	.
=47	=47	=47
12EEE/ 12EE/L	8B/ 8d/ 8g/L	.
12BBB/	.	.
.	8B/ 8d/ 8f#/J	.
12BBB/ 12BB/J	.	.
12EE/L	12B/ 12d/ 12a/L	.
12EE/ 12E/	12B/ 12d/ 12g/	.
12BB/J	12B/ 12d/ 12f#/J	.
=48	=48	=48
*	*^	*
12EE/ 12E/L	4d\	2G/ 2e/	.
12AA/	.	.	.
12AAA/ 12AA/J	.	.	.
12EE/L	4c#\)	.	.
12EE/ 12E/	.	.	.
12AA/J	.	.	.
=49	=49	=49	=49
12EE/ 12E/L	(4g/	2B\ 2e\	p
12BB/	.	.	.
12BBB/ 12BB/J	.	.	.
12EE/L	8f#/L	.	.
12EE/ 12E/	.	.	.
.	8g/J	.	.
12BB/J	.	.	.
*	*v	*v	*
=50	=50	=50
12GG/ 12G/L	6B/ 6e-/ 6g/	.
12E-/	.	.
12EE-/ 12E-/J	[12G/ 12e-/ [12b/	.
12BB/L	12G/] 12e-/ 12b/]	.
12BBB/ 12BB/	6B/ 6e-/ 6g/)	.
12GG/J	.	.
=51	=51	=51
12GG/ 12G/L	4d/ 4g/ (4b/	.
12D/	.	.
12DD/ 12D/J	.	.
12GG/L	8d/ 8g/ 8a/L	.
12GG/ 12G/	.	.
.	8d/ 8g/ 8b/J	.
12D/J	.	.
=52	=52	=52
12BB\ 12B\L	6d/ 6f#/ 6b/	.
12F#\	.	.
12FF#\ 12F#\J	[12B/ [12f#/ [12dd/	.
12BB\L	12B/] 12f#/] 12dd/]	.
12BB\ 12B\	6d/ 6f#/ 6b/)	.
12F#\J	.	.
=53	=53	=53
12F#\ 12f#\L	8d/ 8a/ (8dd/L	.
12B\	.	.
.	8f#/ 8a/ 8ee/J	.
12BB\ 12B\J	.	.
12F#/L	8f#/ 8a/ 8cc#/L	.
12FF#/ 12F#/	.	.
.	8f#/ 8a/ 8dd/J	.
12BB/J	.	.
=54	=54	=54
12BBB/ 12BB/L	4f#\ 4dd\ 4aa\	.
12FF#/	.	.
12FF#/ 12F#/J	.	.
12BB\L	12a\ 12dd\ 12gg#\L	.
12BB\ 12B\	12a\ 12dd\ 12ff#\	.
12F#\J	12f#\ 12a\ 12ee\J	.
=55	=55	=55
12EE/ 12E/L	8f#/ 8a/ 8dd/L	.
12BB/	.	.
.	8f#/ 8a/ 8cc#/J	.
12BB/ 12B/J	.	.
12E\L	12e/ 12g#/ 12dd/L	.
12E\ 12e\	12d/ 12g#/ 12cc#/	.
12B\J	12d/ 12g#/ 12b/J	.
=56	=56	=56
12AA/ 12A/L	4d/ 4e/ 4b/	.
12E/	.	.
12EE/ 12E/J	.	.
12AA\L	4c#/ 4e/ 4a/)	.
12AA\ 12A\	.	.
12E\J	.	.
=57	=57	=57
12FF#/ 12F#/L	12c#'/ 12f#'/ (12a'/L	pp
12C#/	12A'/ 12c#'/ 12g#'/	.
12CC#/ 12C#/J	12A'/ 12c#'/ 12f#'/J	.
12FF#/L	8A'/ 8c#'/ 8e'/L	.
12FF#/ 12F#/	.	.
.	8A'/ 8c#'/ 8f#'/J	.
12C#/J	.	.
=58	=58	=58
12FF#/ 12F#/L	8A'/ 8c#'/L	.
12C#/	.	.
.	8A/ 8c#/ 8d#/J	.
12CC#/ 12C#/J	.	.
12FF#/L	8A/ 8c#/ 8e/L	.
12FF#/ 12F#/	.	.
.	8A/ 8c#/ 8g#/J	.
12C#/J	.	.
=59	=59	=59
12FF#/ 12F#/L	4A/ 4e/ 4f#/	.
12Cn/	.	.
12CCn/ 12C/J	.	.
12FF#/L	[4A/ [4e/ [4a/	.
12FF#/ 12F#/	.	.
12C/J	.	.
=60	=60	=60
12FF#/ 12F#/L	4A/] 4e/] 4a/]	.
12BB/	.	.
12BBB/ 12BB/J	.	.
12FF#/L	4A/ 4d#/ 4b/)	.
12FF#/ 12F#/	.	.
12BB/J	.	.
=61	=61	=61
12EE/ 12E/L	12B/ 12e/ 12g/L	.
12BB/	12G/ 12B/ (12f#/	.
12BBB/ 12BB/J	12G/ 12B/ 12e/J	.
12EE/L	6G/ 6B/ 6d/	.
12EE/ 12E/	.	.
12BB/J	12G/ 12B/ 12e/	.
=62	=62	=62
12EE/ 12E/L	8G/ 8B/L	.
12BB/	.	.
.	8G/ 8B/ 8c#/J	.
12BBB/ 12BB/J	.	.
12EE/L	8G/ 8B/ 8d/L	.
12EE/ 12E/	.	.
.	8G/ 8B/ 8f#/J	.
12BB/J	.	.
=63	=63	=63
12EE/ 12E/L	4G/ 4d/ 4e/	.
12AA/	.	.
12AAA/ 12AA/J	.	.
12EE/L	4G/ 4d/ 4g/	.
12EE/ 12E/	.	.
12AA/J	.	.
=64	=64	=64
12EE/ 12E/L	6G/ 6c#/ 6b/	.
12AA/	.	.
12AAA/ 12AA/J	12G/ 12c#/ 12a/	.
12EE\L	12G/ 12B/ 12g/L	.
12AA\ 12A\	12G/ 12B/ 12d/	.
12E\J	12G/ 12c#/ 12e/J)	.
=65	=65	=65
*	*^	*
12DD/ 12D/L	(4f#/	2A\ 2d\	.
12AA/	.	.	.
12AAA/ 12AA/J	.	.	.
12DD/L	8e/L	.	.
12DD/ 12D/	.	.	.
.	8f#/J	.	.
12AA/J	.	.	.
=66	=66	=66	=66
12FF#/ 12F#/L	6f#/	6A\ 6c#\	.
12C#/	.	.	.
12CC#/ 12C#/J	[12a/	[12F#\ 12c#\	.
12AA/L	12a/]	4F#\] 4c#\	.
12AAA/ 12AA/	6f#/)	.	.
12FF#/J	.	.	.
=67	=67	=67	=67
12DD/ 12D/L	(4f#/	2A\	.
12AA/	.	.	.
12AAA/ 12AA/J	.	.	.
12DD/L	8e/L	.	.
12DD/ 12D/	.	.	.
.	8f#/J	.	.
12AA/J	.	.	.
=68	=68	=68	=68
12FF#/L	6f#/	6B\ 6d\	.
12D/	.	.	.
12DD/ 12D/J	12b/	[12F#\ [12d\	.
12BB/L	12b/	12F#\] 12d\]	.
12BBB/ 12BB/	6f#/)	6B\ 6d\	.
12FF#/J	.	.	.
*	*v	*v	*
=69	=69	=69
12EE/ 12E/L	8B/ 8e/ (8g/L	.
12BB/	.	.
.	8B/ 8e/ 8a/J	.
12BBB/ 12BB/J	.	.
12EE/L	8B/ 8e/ 8f#/L	.
12EE/ 12E/	.	.
.	8B/ 8e/ 8g/J	.
12BB/J	.	.
=70	=70	=70
12BB/ 12B/L	4e/ 4g/ 4ee/	.
12E/	.	.
12EE/ 12E/J	.	.
12BB/L	12e/ 12g/ 12dd/L	.
12GG/ 12G/	12e/ 12g/ 12cc#/	.
12BB/J	12B/ 12e/ 12b/J	.
=71	=71	=71
12GG/ 12G/L	4B/ 4e#/ 4b/	.
12C#/	.	.
12CC#/ 12C#/J	.	.
12GG/L	[4B/ [4e#/ [4cc#/	.
12GG/ 12G/	.	.
12C#/J	.	.
=72	=72	=72
12GG/ 12G/L	6B/] 6e#/] 6cc#/]	.
12C#/	.	.
12CC#/ 12C#/J	12B/ 12e#/ 12b/	.
12GG/L	12B/ 12e#/ 12cc#/L	.
12GG/ 12G/	12B/ 12e#/ 12b/	.
12C#/J	12B/ 12e#/ 12g/J	.
=73	=73	=73
12FF#/ 12F#/L	12f#/L	.
12D/	12B/ 12b/	.
12FF#/ 12G/J	12e#/J	.
12D/L	12B/ 12b/L	.
12CC#/ 12C#/	12B/	.
12GG/J	12E#/ 12e#/J)	.
=74	=74	=74
(12FF#/ 12F#/L	(12f#/L	.
12D/	12B/ 12b/	.
12FF#/ 12G/J	12e#/J	.
12D/L	12B/ 12b/L	.
12CC#/ 12C#/	12B/	.
12GG/J)	12E#/) 12e#/J	.
=75	=75	=75
12FF#\ (12B\L	(12f#/L	.
12D\	12d/ 12dd/	.
12FF#\ 12B\J	12e#/J	.
12D/L	12d/ 12dd/L	.
12CC#/ 12E#/	12B/	.
12GG/J)	12G/) 12g/J	.
=76	=76	=76
12FF#\ (12B\L	(12f#/L	.
12D\	12d/ 12dd/	.
12FF#\ 12B\J	12e#/J	.
12D/L	12d/ 12dd/L	.
12CC#/ 12E#/	12B/	.
12GG/J)	12G/) 12g/J	.
=77	=77	=77
(12CC#/ 12En/L	(12B/L	f
12GG/	12G/ 12g/	.
12CC#/ 12E/J	12B/J	.
12GG/L	12G/ 12g/L	.
12CC#/ 12E/	12B/	.
12GG/J)	12G/) 12g/J	.
=78	=78	=78
12B^\ (12e^\L	12g^\ (12b^\L	p
12C#\)	12gg\)	.
12B^\ (12e^\J	12g^\ (12b^\J	.
12C#\L)	12gg\L)	.
12B^\ (12e^\	12g^\ (12b^\	.
12C#\J)	12gg\J)	.
=79	=79	=79
(12E/L	(12A#/L	f
12FF#/	12F#/ 12f#/	.
12E/J	12A#/J	.
12FF#/L	12F#/ 12f#/L	.
12E/	12A#/	.
12FF#/J)	12F#/) 12f#/J	.
=80	=80	=80
12c#^\ (12e^\L	12f#^\ (12a#^\L	p
12F#\)	12ff#\)	.
12c#^\ (12e^\J	12f#^\ 12a#^\J	.
12F#\L)	12ff#\L	.
12c#^\ (12e^\	12f#^\ (12a#^\	.
12F#\J)	12ff#\J)	.
=81	=81	=81
12F#^\ (12B^\L	(12d^/ 12f#^/L	.
12BB\)	12dd/)	p
12F#\ (12A#\J	12d/ 12f#/J	.
12AA#^/L)	12dd^/L	.
(12D/ 12F#/	(12A#/ 12d/	.
12FF#/J)	12a#/J)	.
=82	=82	=82
12B^\ (12d^\L	12f#^/ 12b^/L	.
12D\)	12ff#/	.
12B\ (12c#\J	(12e#/ 12b/J	.
12C#^\L)	12ee#^/L)	.
12B\ (12g\	12en/ 12b/	.
12G\J)	12een/J	.
=83	=83	=83
12B^\ 12f#^\L	12d^/ 12b^/L	.
12F#\	12dd/	.
12B\ (12e\J	12c#/ 12g/J	.
12E^\L)	12cc#^/L	.
12G\ 12d\	12B/ 12e/	.
12D\J	12b/J	.
=84	=84	=84
12G^\ (12c#^\L	(12A^/ 12e^/L	.
12C#\)	12a/)	.
12E\ (12B\J	(12G/ 12d/J	.
12BB^\L)	12g^/L)	.
12E\ (12A#\	(12F#/ 12c#/	.
12AA#\J)	12f#/J)	.
=85	=85	=85
12F#^\ 12B^\L	12d^/ 12f#^/L	.
12BB\	12dd/	.
12F#\ (12B-\J	12d/ 12f#/J	.
12BB-^/L)	12dd^/L	.
(12D/ 12F#/	(12B-/ 12d/	.
12FF#/J)	12b-/J)	.
=86	=86	=86
12A^\ (12d^\L	12f#^\ (12a^\L	.
12D\)	12ff#\)	.
12A\ (12c#\J	12e#\ 12a\J	.
12C#^\L)	12ee#^\L	.
12A\ 12d\	12f#\ (12a\	.
12D\J	12ff#\J)	.
=87	=87	=87
12A^\ 12f#^\L	12f#^\ (12b#^\L	.
12D\	12ff#\)	.
12A\ 12f#\J	12a\ (12cc#\J	.
12C#^\L	12aa^\L)	.
12A\ 12f#\	12a\ (12dd#\	.
12BB#\J	12aa\J)	.
=88	=88	=88
12B^\ 12g#^\L	12e#^/ 12cc#^/L	.
12C#\	12ee#/	.
12A\ (12f#\J	12f#/ (12cc#/J	.
12C#^\L)	12ff#^\L)	.
12C#\ 12A\	12f#\ (12cc#\	.
12FF#\J	12ff#\J)	.
=89	=89	=89
12A^\ 12d^\L	12f#^/ 12a^/L	.
12D\	12ff#/	.
12A\ (12c#\J	(12e#/ 12a/J	.
12C#^\L)	12ee#^/L)	.
12A\ (12cn\	(12e#/ 12a/	.
12Cn\J)	12een/J)	.
=90	=90	=90
12A^\ (12B^\L	(12d#^/ 12a^/L	.
12BB\)	12dd#/)	.
12A\ (12dn\J	(12cn/ 12f#/J	.
12D^\L)	12ccn^/L)	.
12A\ (12d#\	(12B/ 12f#/	.
12D#\J)	12b/J)	.
=91	=91	=91
12B^\ (12e^\L	(12b\L	.
12E\)	12gg#\)	.
12B\ 12d#\J	12f##\ (12b\J	.
12D#\L	12ff##^\L)	.
(12d#\	12f#\ (12b\	.
12D#\J)	12ff#\J)	.
=92	=92	=92
12B^\ (12c#^\L	12e#/ 12b/L	.
12C#\)	12ee/	.
12B\ (12en\J	12d/ 12g#/J	.
12E^\L	12dd^/L	.
12B\) 12e#\	12c#/ 12g#/	.
&(12E#\J&)	12cc#/J	.
=93	=93	=93
12c#\ (12f#\L	12a\ (12cc#\L	.
12F#\)	12aa#\)	.
12d\ 12g\J	12b\ (12dd\J	.
12F#\L	12bb^\L)	.
12d\ (12g#\	12e#\ (12b\	.
12F#\J)	12ee#^\J)	.
=94	=94	=94
12B^\ (12f#^\L	12a#^\ (12cc#^\L	.
12F#\)	12aa#\)	.
12d\ (12g\J	12b\ (12dd\J	.
12F#^\L)	12bb^\L)	.
12d\ 12g#\	12e#\ (12b\	.
12F#\J	12ee#^\J)	.
=95	=95	=95
12d#^\ (12g#^\L	12b^\ (12dd#^\L	.
12F#\)	12bb#\)	.
12d#\ 12g#\J	12b\ (12dd#\J	.
12F#^\L	12bb#^\L)	.
12g#\	12b\ (12dd#\	.
12E\J	12bb#\J)	.
=96	=96	=96
12e^\ (12a^\L	12cc#^\ (12ee^\L	.
12F#\)	12ccc#\)	.
12e\ 12a#\J	12f#\ (12cc#\J	.
12F#^\L	12ff#^\L)	.
12e\ (12a#\	12f#\ (12cc#\	.
12F#\J)	12ff#\J)	.
=97	=97	=97
8BB'/ 8F#'/ 8B'/L	(12d^/ 12f#^/L	.
.	12dd/)	.
8FF#'/ 8F#'/J	.	.
.	12d/ 12f#/J	.
8AA#'/ 8F#'/ 8A#'/L	12dd^/L	.
.	(12A#/ 12d/	.
8FF#'/ 8F#'/J	.	.
.	12a#/J)	.
=98	=98	=98
8D'\ 8B'\ 8d'\L	12f#^/ 12b^/L	.
.	12ff#/	.
8GG'\ 8G'\J	.	.
.	12e#/ 12b/J	.
4C#^\ 4c#^\	12ee#^/L	.
.	12en/ 12b/	.
.	12een/J	.
=99	=99	=99
8E^\ 8B^\ 8e^\L	12d^/ 12b^/L	.
.	12dd/	.
8EE^\ 8E^\J	.	.
.	(12c#/ 12g/J	.
8E^\ 8B^\ 8e^\L	12cc#^/L)	.
.	(12B/ 12e/	.
8DD^\ 8D^\J	.	.
.	12b/J)	.
=100	=100	=100
8C#'/ 8G'/ 8c#'/L	12A/ 12e/L	.
.	12a/	.
8CC#'/ [8C#'/J	.	.
.	(12G/J	.
4FF#^/ 4C#^/]	12g/L)	.
.	(12F#/ 12A/	.
.	12f#/J)	.
=101	=101	=101
8E'\ 8B'\ 8e'\L	12g\ (12b\L	.
.	12gg\)	.
8BB'\ 8B'\J	.	.
.	12g\ (12b\J	.
8E-'\ 8B'\ 8e-'\L	12gg\L)	.
.	12e-\ (12g\	.
8BB'\ 8B'\J	.	.
.	12ee-\J)	.
=102	=102	=102
8G'\ 8d'\ 8g'\L	8b\ 8dd\L	.
8D'\ 8G'\ 8d'\J	(8b\J	.
8G'\ 8d'\ 8g'\L	12ee#/L)	.
.	(12B/	.
8GG'\ 8G'\J	.	.
.	12b/J)	.
=103	=103	=103
8BB'/ 8F#'/ 8B'/L	12d/L	ff
.	12dd/	.
8FF#'/ 8F#'/J	.	.
.	12b/J	.
8BB'/ 8F#'/ 8B'/L	12dd/L	.
.	12b/	.
8EE#'/ 8E#'/J	.	.
.	12dd/J	.
=104	=104	=104
8BB'/ 8F#'/ 8B'/L	12d/ 12f#/L	.
.	12dd/	.
8FF#'/ 8F#'/J	.	.
.	(12d/ 12gn/J	.
8BB'/ 8F#'/ 8B'/L	12dd/L)	.
.	(12d/ 12g#/	.
8EE#'/ 8E#'/J	.	.
.	12dd/J)	.
=105	=105	=105
8BB'\ 8F#'\ 8B'\L	12d/L	.
.	12dd/	.
8FF#'\ 8F#'\J	.	.
.	12f#/ (12b/J	.
8D\ 8B\ 8d\L	12ff#\L)	.
.	12b\ (12dd\	.
8F#'\ 8d'\ 8f#'\J	.	.
.	12bb\J)	.
*clefG2	*	*
=106	=106	=106
8B'/ 8f#'/ 8b'/L	12d/ 12f#/L	.
.	12dd/	.
8F#'/ 8f#'/J	.	.
.	12f#/ (12b/J	.
8d/ 8b/L	12ff#\L)	.
.	12b\ (12dd\	.
8f#/ 8dd/ 8ff#/J	.	.
.	12bb\J)	.
=107	=107	=107
6b\ 6ff#\ 6bb\	6dd\ 6ddd\	.
12r	12r	.
4r	4r	.
*clefF4	*	*
=108	=108	=108
6FFF#/ 6FF#/	6A#/ 6e/ 6f#/ 6cc#/	.
12r	12r	.
4r	4r	.
=109	=109	=109
8BBBB/ 8BBB/L	12d/L	f
.	12B/ 12b/	.
8FF#/J	.	.
.	12d/J	.
8F#/L	12A#/ 12a#/L	.
.	12d/	.
8FF#/J	.	.
.	12An/ 12an/J	.
=110	=110	=110
8BBBB/ 8BBB/L	12B/L	.
.	12G/ 12g/	.
8GG/J	.	.
.	12B/J	.
8G/L	12F#/ 12f#/L	.
.	12B/	.
8GG/J	.	.
.	12E/ 12e/J	.
*	*clefF4	*clefF4
=111	=111	=111
8BBBB/ 8BBB/L	12G\L	.
.	12D\ 12d\	.
8EE/J	.	.
.	12G\J	.
8E/L	12C#\ 12c#\L	.
.	12G\	.
8EE/J	.	.
.	12BB\ 12B\J	.
=112	=112	=112
8BBBB/ 8BBB/L	12G\L	.
.	12D\ 12d\	.
8EE#/J	.	.
.	12G\J	.
8E#/L	12C#\ 12c#\L	.
.	12G\	.
8EE#/J	.	.
.	12BB\ 12B\J	.
*	*clefG2	*clefG2
=113	=113	=113
8BBBB/ 8BBB/L	12d/L	.
.	12B/ 12b/	.
8FF#/J	.	.
.	12a/J	.
8F#/L	12A#/ 12a#/L	.
.	12e/	.
8FF#/J	.	.
.	12An/ 12bn/J	.
=114	=114	=114
8BBBB/ 8BBB/L	12a/L	.
.	12G/ 12g/	.
8GG/J	.	.
.	12B/J	.
8G/L	12F#/ 12f#/L	.
.	12B/	.
8GG/J	.	.
.	12E/ 12e/J	.
*	*clefF4	*clefF4
=115	=115	=115
8BBBB/ 8BBB/L	12G\L	p
.	12D\ 12d\	.
8EE/J	.	.
.	12G\J	.
8E/L	12C#\ 12c#\L	.
.	12G\	.
8EE/J	.	.
.	12C#\J	.
=116	=116	=116
8BBBB/ 8BBB/L	12G\L	.
.	12D\ 12d\	.
8EE#/J	.	.
.	12G\J	.
8E#/L	12C#\ 12c#\L	.
.	12G\	.
8EE#/J	.	.
.	12BB\ 12B\J	.
=117	=117	=117
8BBBB/ 8BBB/L	12F#\L	pp
.	12D\ 12d\	.
8FF#/J	.	.
.	12F#\J	.
8F#/L	12C#\ 12c#\L	.
.	12F#\	.
8FF#/J	.	.
.	12BB\ 12B\J	.
=118	=118	=118
12DD/ 12D/L	12F#\L	.
12FF#/	12D\ 12d\	.
12CC#/ 12C#/J	12F#\J	.
12FF#/L	12C#\ 12c#\L	.
12BBB/ 12BB/	12F#\	.
12FF#/J	12BB\ 12B\J	.
=119	=119	=119
12GGG/ 12GG/L	12D/L	.
12DD/	12GG/ 12G/	.
12GGG/ 12GG/J	12D/J	.
12DD/L	12GG/ 12G/L	p
12GGG/ 12GG/	12D/	.
12DD/J	12GG/J	.
=120	=120	=120
12FFF#/ 12FF#/L	12BB/L	pp
12BBB/	12FF#/ 12F#/	.
12FFF#/ 12FF#/J	12BB/J	.
12BBB/L	12FF#/ 12F#/L	.
12FFF#/ 12FF#/	12BB/	.
12BBB/J	12FF#/ 12F#/J	.
=121	=121	=121
6BBBB/ 6BBB/	6BB/	.
12r	12r	.
4r	4r	.
*	*clefG2	*clefG2
=122	=122	=122
6BB\ 6F#\ 6d\	6b\ 6bb\	.
12r	12r	.
4r	4r	.
==	==	==
*-	*-	*-
